X:2032
T:Polsk
T:(Totakt-pols, nr. HJH-282)
S:efter Hans Jens Hansen,
O:Hjertinge, Ribe amt, Danmark
R:Totakt-pols
Z:ABC-transkribering av Åke Persson
M:2/4
L:1/8
Q:1/4=100
K:D
|: "D"A/B/A/G/ Fd | "A"Ed"D"Dd | "A"cdec | "D"d/c/d/e/ dd | A/B/A/G/ Fd | "A"Ed"D"Dd | "A"cd e/f/e/c/ | "D"d2 d2 :|
|: "D"d/e/f/g/ fd | "A"c/d/e/f/ ec | "Bm"dB "A"A/B/c/d/ | "Em"e/d/c/B/ "A"A2 | "D"A/B/A/G/ Fd | "A"Ed"D"Dd | "A"cd e/f/e/c/ | "D"d2 d2 :|
(:musicend:)

[[!Ackord]]
(:music:)
